packages/foundations/assets/icons/functional/images/logos/subway_28.svg

<svg width="28" height="28" viewBox="0 0 28 28" fill="none" xmlns="http://www.w3.org/2000/svg">
<g clip-path="url(#clip0_185_1724)">
<path fill-rule="evenodd" clip-rule="evenodd" d="M21.875 1.75C24.2277 1.75 26.25 3.64358 26.25 6.125V21.875C26.25 24.2277 24.3577 26.25 21.875 26.25H6.125C3.77234 26.25 1.75 24.3545 1.75 21.875V6.125C1.75 3.77234 3.64287 1.75 6.125 1.75H21.875ZM6.125 3.5C4.72703 3.5 3.5 4.62327 3.5 6.125V21.875C3.5 23.273 4.67961 24.5 6.125 24.5H21.875C23.273 24.5 24.5 23.3999 24.5 21.875V6.125C24.5 4.72703 23.3732 3.5 21.875 3.5H6.125ZM11.55 7V15.5861C11.55 17.154 12.6173 18.2 13.9991 18.2C15.3316 18.2 16.3724 17.2274 16.4451 15.752L16.4491 7H19.9491V15.9049C19.9491 19.6358 17.157 21 13.9991 21C10.9071 21 8.16729 19.6889 8.05447 16.1348L8.05086 7H11.55Z" fill="#1A1C1F"/>
</g>
<defs>
<clipPath id="clip0_185_1724">
<rect width="28" height="28" fill="white"/>
</clipPath>
</defs>
</svg>

<svg xmlns="http://www.w3.org/2000/svg" width="28" height="28" fill="none"><g clip-path="url(#a)"><path fill="#1A1C1F" fill-rule="evenodd" d="M21.875 1.75c2.353 0 4.375 1.894 4.375 4.375v15.75c0 2.353-1.892 4.375-4.375 4.375H6.125c-2.353 0-4.375-1.895-4.375-4.375V6.125c0-2.353 1.893-4.375 4.375-4.375zM6.125 3.5A2.625 2.625 0 0 0 3.5 6.125v15.75c0 1.398 1.18 2.625 2.625 2.625h15.75c1.398 0 2.625-1.1 2.625-2.625V6.125c0-1.398-1.127-2.625-2.625-2.625zM11.55 7v8.586c0 1.568 1.067 2.614 2.45 2.614 1.332 0 2.372-.973 2.445-2.448L16.45 7h3.5v8.905C19.95 19.635 17.157 21 14 21c-3.092 0-5.832-1.311-5.945-4.865L8.051 7z" clip-rule="evenodd"/></g><defs><clipPath id="a"><path fill="#fff" d="M0 0h28v28H0z"/></clipPath></defs></svg>
